X:29
T:Tripping Upstairs
M:6/8
L:1/8
R:Jig
Z:Steve Mansfield 13 November 2001
K:D
FAd GBd | FAd fed | cdc ABc | dfe dBA | FAd GBd | 
FAd fed | cdc ABc | dfe d3 :: dBB fBB | fgf fed | 
cAA eAA | efe edc | FAd GBd | FAd fed | cBc ABc | dfe d3 :|

